resources/icons/16px/flow-branch.svg

<?xml version="1.0" encoding="UTF-8"?>
<svg width="16px" height="16px" viewBox="0 0 16 16" version="1.1" xmlns="http://www.w3.org/2000/svg" xmlns:xlink="http://www.w3.org/1999/xlink">
    <!-- Generator: Sketch 51.3 (57544) - http://www.bohemiancoding.com/sketch -->
    <title>Artboard</title>
    <desc>Created with Sketch.</desc>
    <defs></defs>
    <g id="Artboard" stroke="none" stroke-width="1" fill="none" fill-rule="evenodd">
        <g id="flow-branch" fill="#000000" fill-rule="nonzero">
            <path d="M10.6425609,6.5950071 C10.8627117,7.01273857 10.9873444,7.488785 10.9873444,7.99398629 C10.9873444,8.43273492 10.8933429,8.84949414 10.7244106,9.22516353 L13.989116,12.6872975 L13.9871621,10.9371889 C13.9959199,10.6890525 14.101105,10.4442474 14.300771,10.257915 C14.6929721,9.89190483 15.3239601,9.91331554 15.6894014,10.3054997 C15.8754442,10.5051572 16.0045682,10.7649008 15.9886795,11.0196918 L15.9804507,15.0506779 C15.9716929,15.2988143 15.8802833,15.5440953 15.6806172,15.7304277 C15.4809511,15.9167602 15.2295896,16.0046916 14.981634,15.9961255 L10.9289294,15.9977426 C10.6809737,15.9891765 10.4364238,15.884113 10.250381,15.6844556 C9.88493974,15.2922714 9.90685116,14.629395 10.2990523,14.2633848 C10.4987183,14.0770524 10.7500799,13.989121 10.9980355,13.997687 L12.6988403,13.9970084 L9.3928059,10.6471211 C8.97447487,10.8693316 8.4973116,10.9951997 7.99079594,10.9951997 C6.68607993,10.9951997 5.57611936,10.1600544 5.16475677,8.99439077 L0.998849494,8.99439077 C0.447200151,8.99439077 0,8.54649443 0,7.99398629 C0,7.44147815 0.447200151,6.99358181 0.998849494,6.99358181 L5.16475677,6.99358181 C5.57611936,5.82791815 6.68607993,4.99277286 7.99079594,4.99277286 C8.43102534,4.99277286 8.8490822,5.08785264 9.2256119,5.25862746 L12.6739304,1.99128907 L10.9287396,1.99324586 C10.6807909,1.98448144 10.4361709,1.87921687 10.2499792,1.67939978 C9.88424574,1.28690194 9.90564469,0.666543756 10.2975324,0.300826056 C10.4970389,0.1146425 10.7565862,-0.0145792111 11.0111847,0.00132152549 L15.0355288,0.00955511709 C15.2834775,0.0183195292 15.5285731,0.109798365 15.7147648,0.309615451 C15.9009563,0.509432537 15.9888213,0.76098419 15.9802617,1.00912746 L15.981874,5.05600031 C15.9733144,5.30414358 15.8683303,5.54887847 15.6688238,5.73506202 C15.2769361,6.10077972 14.6145607,6.07885173 14.2488272,5.68635388 C14.0626357,5.4865368 13.9747707,5.23498514 13.9833302,4.98684187 L13.9826557,3.29364797 L10.6425609,6.5950071 Z" id="Shape"></path>
        </g>
    </g>
</svg>

<svg xmlns="http://www.w3.org/2000/svg" viewBox="0 0 16 16">
  <path d="M10.643 6.595c.22.418.344.894.344 1.399 0 .439-.094.855-.263 1.231l3.265 3.462-.002-1.75a.97.97 0 0 1 .314-.68.99.99 0 0 1 1.388.048c.186.2.316.46.3.715l-.009 4.03a.96.96 0 0 1-.3.68.97.97 0 0 1-.698.266l-4.053.002a.97.97 0 0 1-.679-.314 1.03 1.03 0 0 1 .05-1.42.97.97 0 0 1 .698-.266l1.7-.001-3.305-3.35a2.998 2.998 0 0 1-4.228-1.653H.999a1 1 0 0 1 0-2h4.166a3 3 0 0 1 4.06-1.735l3.449-3.268-1.745.002a.979.979 0 0 1-.631-1.692c.199-.186.459-.316.713-.3l4.025.009c.247.008.493.1.679.3s.274.451.265.7l.002 4.046a.97.97 0 0 1-.313.68 1.03 1.03 0 0 1-1.42-.05.97.97 0 0 1-.266-.7V3.295z"/>
</svg>
